dist/images/row.svg

<svg width="14" height="9" viewBox="0 0 14 9" fill="none" xmlns="http://www.w3.org/2000/svg">
<path d="M13.723 2.08525L7.51715 8.29723C7.44327 8.37097 7.36324 8.42307 7.27704 8.45355C7.19085 8.48452 7.0985 8.5 7 8.5C6.90149 8.5 6.80915 8.48452 6.72295 8.45355C6.63676 8.42307 6.55673 8.37097 6.48285 8.29724L0.258575 2.08525C0.0861914 1.91321 -2.97318e-07 1.69816 -3.08598e-07 1.44009C-3.19879e-07 1.18203 0.0923479 0.96083 0.277044 0.776498C0.461741 0.592166 0.67722 0.500001 0.923482 0.500001C1.16974 0.500001 1.38522 0.592166 1.56992 0.776498L7 6.19585L12.4301 0.776498C12.6025 0.604455 12.8147 0.518433 13.0669 0.518433C13.3196 0.518433 13.5383 0.610599 13.723 0.794931C13.9077 0.979263 14 1.19432 14 1.44009C14 1.68587 13.9077 1.90092 13.723 2.08525Z" fill="black"/>
</svg>

<svg xmlns="http://www.w3.org/2000/svg" width="14" height="9" fill="none" viewBox="0 0 14 9"><path fill="#000" d="M13.723 2.085 7.517 8.297a.64.64 0 0 1-.24.157A.8.8 0 0 1 7 8.5a.8.8 0 0 1-.277-.046.64.64 0 0 1-.24-.157L.259 2.085A.87.87 0 0 1 0 1.44q0-.387.277-.664A.9.9 0 0 1 .923.5q.37 0 .647.276L7 6.196l5.43-5.42a.87.87 0 0 1 .637-.258q.379 0 .656.277T14 1.44t-.277.645"/></svg>
